X: 23965
T: Lochiel's Awa' Tae France
R: reel
M: 4/4
K: Adorian
a|"Am"eA A/A/A e2 dc|"G"BG G/G/G "Em"Bcda|"Am"eA A/A/A e2 dc|"G"BGBd "C"geea|
"Am"eA A/A/A e2 dc|"G"BG G/G/G "Em"Bcda|"Am"eA A/A/A "D"{g}fedc|"G"BGBd "C"geeg|
"G"dega bgab|gd d/d/d gdde|dega bgab|"C"ge e/e/e geeg|
"G"dega bgab|gd d/d/d gddg|"Em"bgag "G"degB|"Am"BA A/A/A "C"gee||

